X:3
T:Anderson's
Z: id:dc-reel-3
M:C
L:1/8
K:D Major
B|ABdf efdB|AFF2 EDEF|ABdf efdf|afef d3:|!
f|a2fa bafa|a2fd edBd|a2fa bafb|afef defg|!
a2fa bafa|a2fd edBd|AFF2 ABdf|afef d3|]!